symbols-de/shields/motorway_6x3_z16.svg

<?xml version="1.0" encoding="UTF-8" standalone="no"?>
<svg
   xmlns:dc="http://purl.org/dc/elements/1.1/"
   xmlns:cc="http://creativecommons.org/ns#"
   xmlns:rdf="http://www.w3.org/1999/02/22-rdf-syntax-ns#"
   xmlns:svg="http://www.w3.org/2000/svg"
   xmlns="http://www.w3.org/2000/svg"
   xmlns:sodipodi="http://sodipodi.sourceforge.net/DTD/sodipodi-0.dtd"
   xmlns:inkscape="http://www.inkscape.org/namespaces/inkscape"
   width="100%"
   height="100%"
   viewBox="0 0 48.0 36.0"
   id="svg2"
   version="1.1"
   inkscape:version="0.91 r13725"
   sodipodi:docname="autobahn_6x3_z16.svg">
  <metadata
     id="metadata9">
    <rdf:RDF>
      <cc:Work
         rdf:about="">
        <dc:format>image/svg+xml</dc:format>
        <dc:type
           rdf:resource="http://purl.org/dc/dcmitype/StillImage" />
        <dc:title></dc:title>
      </cc:Work>
    </rdf:RDF>
  </metadata>
  <defs
     id="defs7" />
  <sodipodi:namedview
     pagecolor="#ffffff"
     bordercolor="#666666"
     borderopacity="1"
     objecttolerance="10"
     gridtolerance="10"
     guidetolerance="10"
     inkscape:pageopacity="0"
     inkscape:pageshadow="2"
     inkscape:window-width="941"
     inkscape:window-height="761"
     id="namedview5"
     showgrid="false"
     inkscape:zoom="6.5555556"
     inkscape:cx="24"
     inkscape:cy="18"
     inkscape:window-x="242"
     inkscape:window-y="224"
     inkscape:window-maximized="0"
     inkscape:current-layer="svg2" />
  <path
     style="fill:#365eaf;fill-opacity:1;stroke:#0528a2;stroke-width:1;stroke-miterlimit:4;stroke-dasharray:none;stroke-opacity:1"
     d="m 24,0.499999 c -0.336915,0 -0.504883,0.0036 -0.504883,0.01282 L 1.259091,2.448243 C 0.753714,2.541043 0.5,2.681334 0.5,2.866945 l 0,30.26611 c 0,0.185609 0.253714,0.325896 0.759091,0.418701 l 22.236026,1.935424 c 0,0.0093 0.167971,0.01282 0.504883,0.01282 0.336918,0 0.504883,-0.0035 0.504883,-0.01282 l 22.236026,-1.935427 c 0.505379,-0.0928 0.648297,-0.24562 0.759091,-0.4187 0,-16.253566 0,-15.906182 0,-30.26611 0,-0.185611 -0.253712,-0.325901 -0.759091,-0.418702 L 24.504883,0.512817 c 0,-0.0093 -0.16797,-0.01282 -0.504883,-0.01282 z"
     id="path6"
     inkscape:connector-curvature="0"
     sodipodi:nodetypes="sccccccsccccccs" />
</svg>

<?xml version="1.0" encoding="UTF-8"?>
<svg xmlns="http://www.w3.org/2000/svg" xmlns:xlink="http://www.w3.org/1999/xlink" width="46pt" height="48pt" viewBox="0 0 46 48" version="1.1">
<g id="surface1">
<path style="fill-rule:nonzero;fill:rgb(21.176471%,36.862745%,68.627451%);fill-opacity:1;stroke-width:1;stroke-linecap:butt;stroke-linejoin:miter;stroke:rgb(1.960784%,15.686275%,63.529412%);stroke-opacity:1;stroke-miterlimit:4;" d="M 24 0.500977 C 23.661685 0.500977 23.494565 0.503906 23.494565 0.512695 L 1.259511 2.449219 C 0.754076 2.540039 0.501359 2.680664 0.501359 2.868164 L 0.501359 33.131836 C 0.501359 33.319336 0.754076 33.459961 1.259511 33.550781 L 23.494565 35.487305 C 23.494565 35.496094 23.661685 35.499023 24 35.499023 C 24.338315 35.499023 24.505435 35.496094 24.505435 35.487305 L 46.740489 33.550781 C 47.245924 33.459961 47.388587 33.304688 47.498641 33.131836 C 47.498641 16.880859 47.498641 17.226562 47.498641 2.868164 C 47.498641 2.680664 47.245924 2.540039 46.740489 2.449219 L 24.505435 0.512695 C 24.505435 0.503906 24.338315 0.500977 24 0.500977 Z M 24 0.500977 " transform="matrix(0.958333,0,0,1.333333,0,0)"/>
</g>
</svg>
